components/Common/Svg/svgs/mobileDevelopment.svg

<svg width="40" height="40" viewBox="0 0 40 40" fill="none" xmlns="http://www.w3.org/2000/svg">
<path d="M13.85 31L10.25 31C9.00736 31 8 30.0013 8 28.7692V4.23078C8 2.99876 9.00736 2.00001 10.25 2.00001H23.75C24.9926 2.00001 26 2.99876 26 4.23078V16.5" stroke="#161616" stroke-width="2" stroke-linecap="round" stroke-linejoin="round"/>
<path d="M23.657 20.6123L22.2695 19.5473C22.195 19.49 22.1084 19.4516 22.0166 19.4353C21.9248 19.419 21.8305 19.4253 21.7416 19.4536C21.3118 19.5913 20.8949 19.7679 20.4958 19.9812C20.4131 20.0256 20.342 20.0894 20.2882 20.1675C20.2344 20.2456 20.1996 20.3356 20.1865 20.4302L19.9412 22.1878C19.8477 22.2727 19.7562 22.3609 19.6666 22.4526C19.577 22.5442 19.4908 22.6379 19.4079 22.7337L17.6912 22.9851C17.5989 22.9984 17.5111 23.034 17.4349 23.0889C17.3588 23.1438 17.2964 23.2165 17.2531 23.3009C17.0444 23.7094 16.8716 24.136 16.7366 24.5758C16.7089 24.667 16.7027 24.7636 16.7186 24.8577C16.7345 24.9519 16.772 25.0408 16.8281 25.1171L17.8687 26.5375C17.8612 26.6652 17.8575 26.7938 17.8574 26.9235C17.8574 27.0531 17.8612 27.1818 17.8688 27.3095L16.8284 28.7299C16.7724 28.8061 16.7349 28.8949 16.719 28.9888C16.7031 29.0828 16.7092 29.1793 16.7368 29.2703C16.8714 29.7102 17.0439 30.137 17.2523 30.5456C17.2956 30.6302 17.358 30.703 17.4343 30.7581C17.5105 30.8131 17.5985 30.8488 17.6909 30.8622L19.4079 31.1133C19.4908 31.209 19.577 31.3027 19.6665 31.3944C19.756 31.4861 19.8476 31.5744 19.9412 31.6592L20.1867 33.4166C20.1997 33.511 20.2345 33.6009 20.2881 33.6789C20.3418 33.7569 20.4128 33.8207 20.4952 33.865C20.8942 34.0787 21.311 34.2556 21.7406 34.3937C21.8297 34.4222 21.9241 34.4285 22.0161 34.4122C22.108 34.396 22.1948 34.3575 22.2694 34.3001L23.657 33.2348C23.7817 33.2425 23.9074 33.2464 24.034 33.2464C24.1607 33.2464 24.2864 33.2425 24.4111 33.2348L25.7987 34.2998C25.8731 34.3571 25.9598 34.3955 26.0516 34.4118C26.1434 34.4281 26.2377 34.4218 26.3266 34.3935C26.7563 34.2558 27.1733 34.0792 27.5724 33.8659C27.6551 33.8215 27.7262 33.7577 27.78 33.6796C27.8338 33.6015 27.8686 33.5115 27.8817 33.4169L28.127 31.6593C28.2205 31.5744 28.312 31.4862 28.4016 31.3945C28.4911 31.3029 28.5774 31.2091 28.6603 31.1134L30.377 30.862C30.4693 30.8487 30.5571 30.8131 30.6333 30.7582C30.7094 30.7032 30.7717 30.6306 30.8151 30.5462C31.0238 30.1377 31.1966 29.7111 31.3315 29.2713C31.3593 29.1801 31.3655 29.0835 31.3496 28.9894C31.3337 28.8952 31.2962 28.8063 31.2401 28.73L30.1994 27.3096C30.2069 27.1819 30.2107 27.0533 30.2108 26.9236C30.2108 26.794 30.207 26.6653 30.1994 26.5376L31.2398 25.1172C31.2958 25.041 31.3333 24.9522 31.3492 24.8583C31.3651 24.7643 31.359 24.6678 31.3314 24.5768C31.1968 24.1369 31.0243 23.7101 30.8159 23.3014C30.7726 23.2169 30.7102 23.144 30.6339 23.089C30.5577 23.0339 30.4697 22.9982 30.3773 22.9848L28.6603 22.7338C28.5774 22.638 28.4912 22.5443 28.4017 22.4527C28.3122 22.361 28.2206 22.2727 28.127 22.1879L27.8815 20.4305C27.8685 20.336 27.8337 20.2461 27.78 20.1682C27.7264 20.0902 27.6554 20.0264 27.573 19.982C27.174 19.7684 26.7572 19.5915 26.3276 19.4534C26.2385 19.4249 26.1441 19.4186 26.0521 19.4349C25.9602 19.4511 25.8733 19.4895 25.7988 19.5469L24.4112 20.6123C24.2865 20.6046 24.1608 20.6007 24.0342 20.6007C23.9075 20.6007 23.7818 20.6045 23.657 20.6123Z" stroke="#161616" stroke-width="1.90476" stroke-linecap="round" stroke-linejoin="round"/>
<path fill-rule="evenodd" clip-rule="evenodd" d="M24.0347 24.3204C22.6103 24.3204 21.417 25.5094 21.417 27.0244C21.417 28.5394 22.6103 29.7285 24.0347 29.7285C25.4591 29.7285 26.6524 28.5394 26.6524 27.0244C26.6524 25.5094 25.4591 24.3204 24.0347 24.3204ZM19.5122 27.0244C19.5122 24.5006 21.5157 22.4156 24.0347 22.4156C26.5537 22.4156 28.5571 24.5006 28.5571 27.0244C28.5571 29.5482 26.5537 31.6332 24.0347 31.6332C21.5157 31.6332 19.5122 29.5482 19.5122 27.0244Z" fill="#161616"/>
</svg>

<svg width="40" height="40" viewBox="0 0 40 40" fill="none" xmlns="http://www.w3.org/2000/svg"><path d="M13.85 31h-3.6A2.24 2.24 0 0 1 8 28.77V4.23A2.24 2.24 0 0 1 10.25 2h13.5A2.24 2.24 0 0 1 26 4.23V16.5" stroke="#161616" stroke-width="2" stroke-linecap="round" stroke-linejoin="round"/><path d="m23.657 20.612-1.387-1.065a.581.581 0 0 0-.528-.093c-.43.137-.847.314-1.246.527a.593.593 0 0 0-.31.45l-.245 1.757a6.382 6.382 0 0 0-.533.546l-1.717.251a.58.58 0 0 0-.438.316 7.893 7.893 0 0 0-.516 1.275.617.617 0 0 0 .091.541l1.04 1.42a6.669 6.669 0 0 0 0 .773l-1.04 1.42a.609.609 0 0 0-.091.54c.134.44.307.867.515 1.276a.598.598 0 0 0 .439.316l1.717.251a6.43 6.43 0 0 0 .533.546l.246 1.758a.61.61 0 0 0 .308.448c.4.214.816.39 1.246.529a.575.575 0 0 0 .528-.094l1.388-1.065a6.116 6.116 0 0 0 .754 0L25.8 34.3a.581.581 0 0 0 .528.094c.43-.138.846-.315 1.245-.528a.593.593 0 0 0 .31-.45l.245-1.757a6.382 6.382 0 0 0 .533-.546l1.717-.251a.58.58 0 0 0 .438-.316c.209-.408.382-.835.516-1.275a.616.616 0 0 0-.09-.541l-1.042-1.42a6.668 6.668 0 0 0 0-.772l1.04-1.42a.609.609 0 0 0 .092-.541 7.889 7.889 0 0 0-.515-1.276.598.598 0 0 0-.439-.316l-1.717-.251a6.316 6.316 0 0 0-.533-.546l-.245-1.758a.608.608 0 0 0-.309-.448 7.506 7.506 0 0 0-1.245-.529.575.575 0 0 0-.53.094l-1.387 1.065a6.116 6.116 0 0 0-.754 0Z" stroke="#161616" stroke-width="1.905" stroke-linecap="round" stroke-linejoin="round"/><path fill-rule="evenodd" clip-rule="evenodd" d="M24.035 24.32c-1.425 0-2.618 1.19-2.618 2.704 0 1.515 1.193 2.704 2.618 2.704 1.424 0 2.617-1.189 2.617-2.704 0-1.515-1.193-2.704-2.617-2.704Zm-4.523 2.704c0-2.523 2.004-4.608 4.523-4.608 2.519 0 4.522 2.085 4.522 4.608 0 2.524-2.003 4.61-4.522 4.61-2.52 0-4.523-2.086-4.523-4.61Z" fill="#161616"/></svg>
